src/assets/svgs/quote-blue.svg

<svg width="40" height="38" viewBox="0 0 40 38" fill="none" xmlns="http://www.w3.org/2000/svg">
<path d="M0 38V22.2759L0.238095 18.5831C0.952381 14.1358 2.57937 10.4033 5.11905 7.38558C7.65873 4.2884 10.9524 2.06479 15 0.714731L17.8571 0V6.55172L16.6667 7.02821C12.0635 9.25183 9.40476 13.1829 8.69048 18.8213L8.57143 20.7273H17.381V38H0ZM22.1429 38V22.2759L22.381 18.5831C23.0952 14.2153 24.7222 10.4828 27.2619 7.38558C29.881 4.20899 33.1746 1.98537 37.1429 0.714731L40 0V6.55172L38.8095 7.02821C34.2063 9.093 31.5476 13.024 30.8333 18.8213L30.7143 20.7273H39.5238V38H22.1429Z" fill="#101636"/>
</svg>

<svg width="40" height="38" fill="none" xmlns="http://www.w3.org/2000/svg"><path d="M0 38V22.276l.238-3.693c.714-4.447 2.341-8.18 4.881-11.197C7.659 4.288 10.952 2.065 15 .715L17.857 0v6.552l-1.19.476c-4.604 2.224-7.262 6.155-7.977 11.793l-.119 1.906h8.81V38H0Zm22.143 0V22.276l.238-3.693c.714-4.368 2.341-8.1 4.88-11.197 2.62-3.177 5.914-5.4 9.882-6.671L40 0v6.552l-1.19.476c-4.604 2.065-7.262 5.996-7.977 11.793l-.119 1.906h8.81V38H22.143Z" fill="#101636"/></svg>
